X:134
T:Bryan O'Lynn
T:Cockled Old Man, The
T:Brian O'Lynn
R:jig
H:See also #45, #126
Z:id:hn-jig-134
M:6/8
K:Ador
B|:cAd cAG|EDE GAB|cAd cAG|EAA ~A2B|
cAd cAG|EDE GAB|cde =fed|1 cAA A2B:|2 cAA A2f||
gea ged|cAB cde|eaa age|ed^c def|
gea ged|cAB cde|=fed cAG|1 EAA A2f:|2 EAA A2||
P:Variations
B|:c2c cAG|EDE GAB|cAG A2G|Add ded|
cAB cAG|~E3 GAB|cde ^fed|1 cAG A2B:|2 cAG A2f||
~g3 ged|cAB cde|eaa age|edd def|
gaf ged|cAB cde|^fed cAG|1 EAA A2f:|2 EAA A2||

